svgs/thin/sink.svg

<svg xmlns="http://www.w3.org/2000/svg" viewBox="0 0 512 512"><!--! Font Awesome Pro 6.1.1 by @fontawesome - https://fontawesome.com License - https://fontawesome.com/license (Commercial License) Copyright 2022 Fonticons, Inc. --><path d="M480 288h-96V264c0-13.22 10.78-24 24-24h64C476.4 240 480 236.4 480 232S476.4 224 472 224h-64c-22.06 0-40 17.94-40 40V288h-104V72c0-30.88 25.12-56 56-56s56 25.12 56 56v48c0 4.406 3.594 7.1 8 7.1S392 124.4 392 120v-48C392 32.31 359.7 0 320 0S248 32.31 248 72V288H144V264C144 241.9 126.1 224 104 224h-64C35.59 224 32 227.6 32 231.1S35.59 240 40 240h64C117.2 240 128 250.8 128 264V288H32c-17.67 0-32 14.33-32 32c0 17.67 14.33 32 32 32h448c17.67 0 32-14.33 32-32C512 302.3 497.7 288 480 288zM480 336H32c-8.822 0-16-7.178-16-16S23.18 304 32 304h448c8.822 0 16 7.178 16 16S488.8 336 480 336zM472 376c-4.406 0-8 3.594-8 8v24c0 48.53-39.47 88-88 88h-240c-48.53 0-88-39.47-88-88V384c0-4.406-3.594-8-8-8S32 379.6 32 384V408C32 465.3 78.66 512 136 512h240c57.34 0 104-46.66 104-104v-23.1C480 379.6 476.4 376 472 376z"/></svg>

<svg xmlns="http://www.w3.org/2000/svg" viewBox="0 0 512 512"><!--! Font Awesome Pro 6.4.2 by @fontawesome - https://fontawesome.com License - https://fontawesome.com/license (Commercial License) Copyright 2023 Fonticons, Inc. --><path d="M264 72c0-30.9 25.1-56 56-56s56 25.1 56 56v48c0 4.4 3.6 8 8 8s8-3.6 8-8V72c0-39.8-32.2-72-72-72s-72 32.2-72 72V288H144V264c0-22.1-17.9-40-40-40H40c-4.4 0-8 3.6-8 8s3.6 8 8 8h64c13.3 0 24 10.7 24 24v24H32c-17.7 0-32 14.3-32 32s14.3 32 32 32H480c17.7 0 32-14.3 32-32s-14.3-32-32-32H384V264c0-13.3 10.7-24 24-24h64c4.4 0 8-3.6 8-8s-3.6-8-8-8H408c-22.1 0-40 17.9-40 40v24H264V72zM32 304H136 256 376 480c8.8 0 16 7.2 16 16s-7.2 16-16 16H32c-8.8 0-16-7.2-16-16s7.2-16 16-16zm0 80v24c0 57.4 46.6 104 104 104H376c57.4 0 104-46.6 104-104V384H464v24c0 48.6-39.4 88-88 88H136c-48.6 0-88-39.4-88-88V384H32z"/></svg>
